build/images/icon-linkedin.svg

<!-- Generated by IcoMoon.io -->
<svg version="1.1" xmlns="http://www.w3.org/2000/svg" width="32" height="32" viewBox="0 0 32 32">
<title>icon-linkedin</title>
<path d="M8.643 4c-1.459 0-2.643 1.182-2.643 2.641s1.183 2.668 2.641 2.668c1.458 0 2.643-1.209 2.643-2.668s-1.182-2.641-2.641-2.641zM21.535 11c-2.219 0-3.489 1.16-4.098 2.314h-0.064v-2.004h-4.373v14.689h4.557v-7.271c0-1.916 0.145-3.768 2.516-3.768 2.337 0 2.371 2.185 2.371 3.889v7.15h4.557v-8.068c0-3.948-0.849-6.932-5.465-6.932zM6.363 11.311v14.689h4.561v-14.689h-4.561z"></path>
</svg>

<svg xmlns="http://www.w3.org/2000/svg" width="32" height="32"><path d="M8.643 4C7.184 4 6 5.182 6 6.641s1.183 2.668 2.641 2.668 2.643-1.209 2.643-2.668S10.102 4 8.643 4zm12.892 7c-2.219 0-3.489 1.16-4.098 2.314h-.064V11.31H13v14.689h4.557v-7.271c0-1.916.145-3.768 2.516-3.768 2.337 0 2.371 2.185 2.371 3.889v7.15h4.557v-8.068c0-3.948-.849-6.932-5.465-6.932zm-15.172.311V26h4.561V11.311H6.363z"/></svg>
